X:24
T:Faine I Would(If I Could).  (p)1651.PLFD.024
T:Parthenia.  (p)1651.PLFD.024
M:6/4
L:1/4
Q:3/4=90
S:Playford, Dancing Master,1st Ed.,1651.
O:England
H:1651.
Z:Chris Partington.
K:F
g3 ^f3|g3 b3|a2 g g>ag |f3-f2 d/e/|
f>gf e d2|c3 d3|c2 B B>cA|B3-B2:|
|:F|F2 G A2 B|c3-c2c|d2 c B>cd/e/|f3-f>gf|
e d2 c2 B|A3 b3|a2 d g>a^f|g3-g2:|
